;FLAVOR:Marlin
;TIME:10138
;Filament used: 11.561m
;Layer height: 0.2
;MINX:80.7
;MINY:72.2
;MINZ:0.2
;MAXX:216.3
;MAXY:137.8
;MAXZ:25
;TARGET_MACHINE.NAME:BQ Witbox 2
;Generated with Cura_SteamEngine 5.11.0
M104 S200
M105
M109 S200
; -- START GCODE --
M800        ; Custom GCODE to fire start print procedure
; -- end of START GCODE --
M82 ;absolute extrusion mode
G92 E0
G92 E0
G1 F1500 E-6.5
;LAYER_COUNT:125
;LAYER:0
M107
G0 F3600 X82.89 Y74.552 Z0.2
;TYPE:SKIRT
G1 F1500 E0
G1 F1800 X84.243 Y73.46 E0.05783
G1 X86.222 Y72.474 E0.13137
G1 X87.746 Y72.252 E0.18259
G1 X209.122 Y72.2 E4.21957
G1 X211.179 Y72.622 E4.28942
G1 X212.95 Y73.617 E4.35698
G1 X213.948 Y74.39 E4.39896
G1 X215.04 Y75.743 E4.45679
G1 X216.026 Y77.722 E4.53033
G1 X216.248 Y79.246 E4.58156
G1 X216.3 Y130.622 E6.29033
G1 X215.878 Y132.679 E6.36017
G1 X214.883 Y134.45 E6.42774
G1 X214.11 Y135.448 E6.46972
G1 X212.757 Y136.54 E6.52755
G1 X210.778 Y137.526 E6.60109
G1 X209.254 Y137.748 E6.65231
G1 X87.878 Y137.8 E10.6893
G1 X85.821 Y137.378 E10.75914
G1 X84.05 Y136.383 E10.8267
G1 X83.052 Y135.61 E10.86869
G1 X81.96 Y134.257 E10.92652
G1 X80.974 Y132.278 E11.00005
G1 X80.752 Y130.754 E11.05128
G1 X80.7 Y79.378 E12.76005
G1 X81.122 Y77.321 E12.82989
G1 X82.117 Y75.55 E12.89746
G1 X82.89 Y74.552 E12.93944
G0 F3600 X83.178 Y74.833
G1 F1800 X84.46 Y73.799 E12.99422
G1 X86.342 Y72.861 E13.06416
G1 X87.804 Y72.648 E13.1133
G1 X209.081 Y72.6 E17.14699
G1 X211.038 Y73.002 E17.21344
G1 X212.705 Y73.933 E17.27695
G1 X213.667 Y74.678 E17.31741
G1 X214.701 Y75.96 E17.37219
G1 X215.639 Y77.842 E17.44213
G1 X215.852 Y79.304 E17.49127
G1 X215.9 Y130.581 E19.19675
G1 X215.498 Y132.538 E19.2632
G1 X214.567 Y134.205 E19.32671
G1 X213.822 Y135.167 E19.36718
G1 X212.54 Y136.201 E19.42196
G1 X210.658 Y137.139 E19.4919
G1 X209.196 Y137.352 E19.54104
G1 X87.919 Y137.4 E23.57473
G1 X85.962 Y136.998 E23.64118
G1 X84.295 Y136.067 E23.70468
G1 X83.333 Y135.322 E23.74515
G1 X82.299 Y134.04 E23.79993
G1 X81.361 Y132.158 E23.86987
G1 X81.148 Y130.696 E23.91901
G1 X81.1 Y79.419 E25.62449
G1 X81.502 Y77.462 E25.69094
G1 X82.433 Y75.795 E25.75445
G1 X83.178 Y74.833 E25.79492
G0 F3600 X83.466 Y75.114
G1 F1800 X84.677 Y74.138 E25.84665
G1 X86.462 Y73.248 E25.91299
G1 X87.862 Y73.044 E25.96004
G1 X209.039 Y73 E29.99041
G1 X210.897 Y73.382 E30.0535
G1 X212.46 Y74.249 E30.11294
G1 X213.386 Y74.966 E30.1519
G1 X214.362 Y76.177 E30.20363
G1 X215.252 Y77.962 E30.26997
G1 X215.456 Y79.362 E30.31702
G1 X215.5 Y130.539 E32.01918
G1 X215.118 Y132.397 E32.08227
G1 X214.251 Y133.96 E32.14171
G1 X213.534 Y134.886 E32.18067
G1 X212.323 Y135.862 E32.2324
G1 X210.538 Y136.752 E32.29874
G1 X209.138 Y136.956 E32.34579
G1 X87.961 Y137 E36.37616
G1 X86.103 Y136.618 E36.43925
G1 X84.54 Y135.751 E36.49869
G1 X83.614 Y135.034 E36.53765
G1 X82.638 Y133.823 E36.58938
G1 X81.748 Y132.038 E36.65572
G1 X81.544 Y130.638 E36.70277
G1 X81.5 Y79.461 E38.40493
G1 X81.882 Y77.603 E38.46802
G1 X82.749 Y76.04 E38.52747
G1 X83.466 Y75.114 E38.56642
G0 F3600 X83.751 Y75.398
G1 F1800 X84.897 Y74.475 E38.61536
G1 X86.582 Y73.635 E38.67798
G1 X87.92 Y73.44 E38.72295
G1 X208.997 Y73.4 E42.74999
G1 X210.757 Y73.762 E42.80975
G1 X212.266 Y74.599 E42.86715
G1 X213.102 Y75.251 E42.90241
G1 X214.025 Y76.397 E42.95135
G1 X214.865 Y78.082 E43.01397
G1 X215.06 Y79.42 E43.05894
G1 X215.1 Y130.497 E44.75777
G1 X214.738 Y132.257 E44.81754
G1 X213.901 Y133.766 E44.87493
G1 X213.249 Y134.602 E44.91019
G1 X212.103 Y135.525 E44.95913
G1 X210.418 Y136.365 E45.02175
G1 X209.08 Y136.56 E45.06673
G1 X88.003 Y136.6 E49.09376
G1 X86.243 Y136.238 E49.15353
G1 X84.734 Y135.401 E49.21092
G1 X83.898 Y134.749 E49.24618
G1 X82.975 Y133.603 E49.29512
G1 X82.135 Y131.918 E49.35774
G1 X81.94 Y130.58 E49.40272
G1 X81.9 Y79.503 E51.10155
G1 X82.262 Y77.743 E51.16131
G1 X83.099 Y76.234 E51.2187
G1 X83.751 Y75.398 E51.25396
G0 F3600 X84.035 Y75.683
G1 F1800 X85.117 Y74.812 E51.30016
G1 X86.702 Y74.022 E51.35907
G1 X87.978 Y73.836 E51.40195
G1 X208.955 Y73.8 E55.42567
G1 X210.617 Y74.142 E55.4821
G1 X212.072 Y74.949 E55.53744
G1 X212.817 Y75.535 E55.56897
G1 X213.688 Y76.617 E55.61517
G1 X214.478 Y78.202 E55.67407
G1 X214.664 Y79.478 E55.71696
G1 X214.7 Y130.455 E57.41246
G1 X214.358 Y132.117 E57.4689
G1 X213.551 Y133.572 E57.52423
G1 X212.965 Y134.317 E57.55576
G1 X211.883 Y135.188 E57.60196
G1 X210.298 Y135.978 E57.66086
G1 X209.022 Y136.164 E57.70375
G1 X88.045 Y136.2 E61.72746
G1 X86.383 Y135.858 E61.7839
G1 X84.928 Y135.051 E61.83924
G1 X84.183 Y134.465 E61.87076
G1 X83.312 Y133.383 E61.91696
G1 X82.522 Y131.798 E61.97586
G1 X82.336 Y130.522 E62.01875
G1 X82.3 Y79.545 E63.71425
G1 X82.642 Y77.883 E63.77069
G1 X83.449 Y76.428 E63.82603
G1 X84.035 Y75.683 E63.85755
G0 F3600 X84.32 Y75.968
G1 F1800 X85.335 Y75.151 E63.90089
G1 X86.823 Y74.409 E63.95619
G1 X88.036 Y74.232 E63.99697
G1 X208.913 Y74.2 E68.01735
G1 X210.477 Y74.522 E68.07046
G1 X211.878 Y75.299 E68.12375
G1 X212.532 Y75.82 E68.15156
G1 X213.349 Y76.835 E68.19489
G1 X214.091 Y78.323 E68.2502
G1 X214.268 Y79.536 E68.29097
G1 X214.3 Y130.413 E69.98314
G1 X213.978 Y131.977 E70.03625
G1 X213.201 Y133.378 E70.08954
G1 X212.68 Y134.032 E70.11735
G1 X211.665 Y134.849 E70.16069
G1 X210.177 Y135.591 E70.21599
G1 X208.964 Y135.768 E70.25676
G1 X88.087 Y135.8 E74.27715
G1 X86.523 Y135.478 E74.33026
G1 X85.122 Y134.701 E74.38354
G1 X84.468 Y134.18 E74.41135
G1 X83.651 Y133.165 E74.45469
G1 X82.909 Y131.677 E74.50999
G1 X82.732 Y130.464 E74.55076
G1 X82.7 Y79.587 E76.24294
G1 X83.022 Y78.023 E76.29605
G1 X83.799 Y76.622 E76.34933
G1 X84.32 Y75.968 E76.37714
G0 F3600 X84.604 Y76.254
G1 F1800 X85.555 Y75.488 E76.41776
G1 X86.943 Y74.796 E76.46934
G1 X88.094 Y74.628 E76.50803
G1 X208.871 Y74.6 E80.52509
G1 X210.338 Y74.902 E80.57491
G1 X211.629 Y75.612 E80.62391
G1 X212.246 Y76.104 E80.65016
G1 X213.012 Y77.055 E80.69077
G1 X213.704 Y78.443 E80.74236
G1 X213.872 Y79.594 E80.78104
G1 X213.9 Y130.371 E82.46989
G1 X213.598 Y131.838 E82.51971
G1 X212.888 Y133.129 E82.56871
G1 X212.396 Y133.746 E82.59496
G1 X211.445 Y134.512 E82.63558
G1 X210.057 Y135.204 E82.68716
G1 X208.906 Y135.372 E82.72585
G1 X88.129 Y135.4 E86.74291
G1 X86.662 Y135.098 E86.79272
G1 X85.371 Y134.388 E86.84173
G1 X84.754 Y133.896 E86.86797
G1 X83.988 Y132.945 E86.90859
G1 X83.296 Y131.557 E86.96017
G1 X83.128 Y130.406 E86.99886
G1 X83.1 Y79.629 E88.68771
G1 X83.402 Y78.162 E88.73753
G1 X84.112 Y76.871 E88.78653
G1 X84.604 Y76.254 E88.81278
G0 F3600 X84.89 Y76.537
G1 F1800 X85.771 Y75.827 E88.85041
G1 X87.063 Y75.183 E88.89843
G1 X88.152 Y75.024 E88.93503
G1 X208.829 Y75 E92.94876
G1 X210.2 Y75.282 E92.99532
G1 X211.38 Y75.925 E93.04001
G1 X211.963 Y76.39 E93.06482
G1 X212.673 Y77.271 E93.10245
G1 X213.317 Y78.563 E93.15047
G1 X213.476 Y79.652 E93.18707
G1 X213.5 Y130.329 E94.87259
G1 X213.218 Y131.7 E94.91915
G1 X212.575 Y132.88 E94.96384
G1 X212.11 Y133.463 E94.98865
G1 X211.229 Y134.173 E95.02628
G1 X209.937 Y134.817 E95.0743
G1 X208.848 Y134.976 E95.1109
G1 X88.171 Y135 E99.12463
G1 X86.8 Y134.718 E99.17119
G1 X85.62 Y134.075 E99.21588
G1 X85.037 Y133.61 E99.24069
G1 X84.327 Y132.729 E99.27832
G1 X83.683 Y131.437 E99.32633
G1 X83.524 Y130.348 E99.36294
G1 X83.5 Y79.671 E101.04846
G1 X83.782 Y78.3 E101.09502
G1 X84.425 Y77.12 E101.13971
G1 X84.89 Y76.537 E101.16452
G0 F3600 X85.174 Y76.822
G1 F1800 X85.991 Y76.164 E101.19941
G1 X87.183 Y75.57 E101.2437
G1 X88.21 Y75.42 E101.27822
G1 X208.787 Y75.4 E105.28863
G1 X210.062 Y75.662 E105.33192
G1 X211.131 Y76.238 E105.37231
G1 X211.678 Y76.674 E105.39558
G1 X212.336 Y77.491 E105.43047
G1 X212.93 Y78.683 E105.47476
G1 X213.08 Y79.71 E105.50928
G1 X213.1 Y130.287 E107.19148
G1 X212.838 Y131.562 E107.23477
G1 X212.262 Y132.631 E107.27516
G1 X211.826 Y133.178 E107.29843
G1 X211.009 Y133.836 E107.33332
G1 X209.817 Y134.43 E107.37761
G1 X208.79 Y134.58 E107.41213
G1 X88.213 Y134.6 E111.42254
G1 X86.938 Y134.338 E111.46583
G1 X85.869 Y133.762 E111.50622
G1 X85.322 Y133.326 E111.52949
G1 X84.664 Y132.509 E111.56438
G1 X84.07 Y131.317 E111.60867
G1 X83.92 Y130.29 E111.6432
G1 X83.9 Y79.713 E113.32539
G1 X84.162 Y78.438 E113.36869
G1 X84.738 Y77.369 E113.40907
G1 X85.174 Y76.822 E113.43234
G0 F3600 X85.456 Y77.109
G1 F1800 X86.211 Y76.501 E113.46458
G1 X87.303 Y75.957 E113.50516
G1 X88.268 Y75.816 E113.5376
G1 X208.746 Y75.8 E117.54471
G1 X209.924 Y76.042 E117.58471
G1 X210.941 Y76.59 E117.62313
G1 X211.391 Y76.956 E117.64242
G1 X211.999 Y77.711 E117.67467
G1 X212.543 Y78.803 E117.71524
G1 X212.684 Y79.768 E117.74768
G1 X212.7 Y130.246 E119.42659
G1 X212.458 Y131.424 E119.46658
G1 X211.91 Y132.441 E119.50501
G1 X211.544 Y132.891 E119.5243
G1 X210.789 Y133.499 E119.55654
G1 X209.697 Y134.043 E119.59712
G1 X208.732 Y134.184 E119.62956
G1 X88.254 Y134.2 E123.63667
G1 X87.076 Y133.958 E123.67667
G1 X86.059 Y133.41 E123.71509
G1 X85.609 Y133.044 E123.73439
G1 X85.001 Y132.289 E123.76663
G1 X84.457 Y131.197 E123.8072
G1 X84.316 Y130.232 E123.83964
G1 X84.3 Y79.754 E125.51855
G1 X84.542 Y78.576 E125.55855
G1 X85.09 Y77.559 E125.59697
G1 X85.456 Y77.109 E125.61626
G0 F3600 X85.707 Y77.421
G1 F1800 X86.431 Y76.838 E125.64718
G1 X87.423 Y76.344 E125.68404
G1 X88.326 Y76.212 E125.71439
G1 X208.705 Y76.2 E129.71821
G1 X209.786 Y76.422 E129.75492
G1 X210.694 Y76.905 E129.78912
G1 X211.079 Y77.207 E129.8054
G1 X211.662 Y77.931 E129.83632
G1 X212.156 Y78.923 E129.87317
G1 X212.288 Y79.826 E129.90353
G1 X212.3 Y130.205 E131.57914
G1 X212.078 Y131.286 E131.61584
G1 X211.595 Y132.194 E131.65005
G1 X211.293 Y132.579 E131.66633
G1 X210.569 Y133.162 E131.69724
G1 X209.577 Y133.656 E131.7341
G1 X208.674 Y133.788 E131.76445
G1 X88.295 Y133.8 E135.76828
G1 X87.214 Y133.578 E135.80498
G1 X86.306 Y133.095 E135.83919
G1 X85.921 Y132.793 E135.85546
G1 X85.338 Y132.069 E135.88638
G1 X84.844 Y131.077 E135.92324
G1 X84.712 Y130.174 E135.95359
G1 X84.7 Y79.795 E137.6292
G1 X84.922 Y78.714 E137.66591
G1 X85.405 Y77.806 E137.70012
G1 X85.707 Y77.421 E137.71639
G0 F3600 X85.958 Y77.733
G1 F1800 X86.651 Y77.175 E137.74598
G1 X87.543 Y76.731 E137.77912
G1 X88.384 Y76.608 E137.80739
G1 X208.664 Y76.6 E141.80792
G1 X209.65 Y76.802 E141.8414
G1 X210.455 Y77.226 E141.87166
G1 X210.767 Y77.458 E141.88459
G1 X211.325 Y78.151 E141.91418
G1 X211.769 Y79.043 E141.94732
G1 X211.892 Y79.884 E141.97559
G1 X211.9 Y130.164 E143.64791
G1 X211.698 Y131.15 E143.68139
G1 X211.274 Y131.955 E143.71165
G1 X211.042 Y132.267 E143.72458
G1 X210.349 Y132.825 E143.75417
G1 X209.457 Y133.269 E143.78731
G1 X208.616 Y133.392 E143.81558
G1 X88.336 Y133.4 E147.81611
G1 X87.35 Y133.198 E147.84959
G1 X86.545 Y132.774 E147.87985
G1 X86.233 Y132.542 E147.89278
G1 X85.675 Y131.849 E147.92237
G1 X85.231 Y130.957 E147.95551
G1 X85.108 Y130.116 E147.98378
G1 X85.1 Y79.836 E149.6561
G1 X85.302 Y78.85 E149.68958
G1 X85.726 Y78.045 E149.71984
G1 X85.958 Y77.733 E149.73277
G0 F3600 X86.249 Y78.012
G1 F1800 X86.867 Y77.514 E149.75917
G1 X87.663 Y77.118 E149.78874
G1 X88.442 Y77.004 E149.81492
G1 X208.623 Y77 E153.81216
G1 X209.513 Y77.182 E153.84237
G1 X210.268 Y77.58 E153.87076
G1 X210.488 Y77.749 E153.87999
G1 X210.986 Y78.367 E153.90639
G1 X211.382 Y79.163 E153.93596
G1 X211.496 Y79.942 E153.96214
G1 X211.5 Y130.123 E155.63117
G1 X211.318 Y131.013 E155.66138
G1 X210.92 Y131.768 E155.68977
G1 X210.751 Y131.988 E155.699
G1 X210.133 Y132.486 E155.72539
G1 X209.337 Y132.882 E155.75496
G1 X208.558 Y132.996 E155.78115
G1 X88.377 Y133 E159.77839
G1 X87.487 Y132.818 E159.8086
G1 X86.732 Y132.42 E159.83699
G1 X86.512 Y132.251 E159.84621
G1 X86.014 Y131.633 E159.87261
G1 X85.618 Y130.837 E159.90218
G1 X85.504 Y130.058 E159.92837
G1 X85.5 Y79.877 E161.5974
G1 X85.682 Y78.987 E161.62761
G1 X86.08 Y78.232 E161.656
G1 X86.249 Y78.012 E161.66522
G0 F3600 X86.537 Y78.293
G1 F1800 X87.083 Y77.853 E161.68855
G1 X87.783 Y77.505 E161.71455
G1 X88.5 Y77.4 E161.73865
G1 X208.582 Y77.4 E165.73259
G1 X209.378 Y77.563 E165.75962
G1 X210.082 Y77.934 E165.78608
G1 X210.207 Y78.037 E165.79147
G1 X210.647 Y78.583 E165.81479
G1 X210.995 Y79.283 E165.84079
G1 X211.1 Y80 E165.8649
G1 X211.1 Y130.082 E167.53063
G1 X210.937 Y130.878 E167.55766
G1 X210.566 Y131.582 E167.58412
G1 X210.463 Y131.707 E167.58951
G1 X209.917 Y132.147 E167.61283
G1 X209.217 Y132.495 E167.63883
G1 X208.5 Y132.6 E167.66293
G1 X88.418 Y132.6 E171.65688
G1 X87.622 Y132.437 E171.6839
G1 X86.918 Y132.066 E171.71037
G1 X86.793 Y131.963 E171.71576
G1 X86.353 Y131.417 E171.73908
G1 X86.005 Y130.717 E171.76508
G1 X85.9 Y130 E171.78918
G1 X85.9 Y79.918 E173.45492
G1 X86.063 Y79.122 E173.48194
G1 X86.434 Y78.418 E173.50841
G1 X86.537 Y78.293 E173.5138
G0 F3600 X86.788 Y78.604
G1 F1800 X87.299 Y78.192 E173.53563
G1 X87.905 Y77.891 E173.55813
G1 X88.5 Y77.8 E173.57815
G1 X208.541 Y77.8 E177.57073
G1 X209.243 Y77.944 E177.59457
G1 X209.896 Y78.288 E177.61912
G1 X210.308 Y78.799 E177.64095
G1 X210.609 Y79.405 E177.66345
G1 X210.7 Y80 E177.68347
G1 X210.7 Y130.041 E179.34784
G1 X210.556 Y130.743 E179.37168
G1 X210.212 Y131.396 E179.39623
G1 X209.701 Y131.808 E179.41806
G1 X209.095 Y132.109 E179.44056
G1 X208.5 Y132.2 E179.46058
G1 X88.459 Y132.2 E183.45316
G1 X87.757 Y132.056 E183.477
G1 X87.104 Y131.712 E183.50155
G1 X86.692 Y131.201 E183.52338
G1 X86.391 Y130.595 E183.54588
G1 X86.3 Y130 E183.5659
G1 X86.3 Y79.959 E185.23027
G1 X86.444 Y79.257 E185.25411
G1 X86.788 Y78.604 E185.27866
G0 F3600 X87.105 Y78.862
G1 F1800 X87.477 Y78.55 E185.29481
G1 X88.026 Y78.277 E185.3152
G1 X88.5 Y78.2 E185.33117
G1 X208.5 Y78.2 E189.32239
G1 X209.106 Y78.324 E189.34296
G1 X209.638 Y78.605 E189.36297
G1 X209.95 Y78.977 E189.37912
G1 X210.223 Y79.526 E189.39951
G1 X210.3 Y80 E189.41548
G1 X210.3 Y130 E191.07849
G1 X210.176 Y130.606 E191.09906
G1 X209.895 Y131.138 E191.11907
G1 X209.523 Y131.45 E191.13522
G1 X208.974 Y131.723 E191.15562
G1 X208.5 Y131.8 E191.17159
G1 X88.5 Y131.8 E195.1628
G1 X87.894 Y131.676 E195.18338
G1 X87.362 Y131.395 E195.20339
G1 X87.05 Y131.023 E195.21954
G1 X86.777 Y130.474 E195.23993
G1 X86.7 Y130 E195.2559
G1 X86.7 Y80 E196.91891
G1 X86.824 Y79.394 E196.93948
G1 X87.105 Y78.862 E196.95949
G0 F3600 X87.423 Y79.117
G1 F1800 X87.655 Y78.908 E196.96988
G1 X88.149 Y78.662 E196.98823
G1 X88.5 Y78.6 E197.00009
G1 X208.5 Y78.6 E200.9913
G1 X208.919 Y78.678 E201.00548
G1 X209.383 Y78.923 E201.02293
G1 X209.592 Y79.155 E201.03332
G1 X209.838 Y79.649 E201.05167
G1 X209.9 Y80 E201.06353
G1 X209.9 Y130 E202.72653
G1 X209.822 Y130.419 E202.74071
G1 X209.577 Y130.883 E202.75816
G1 X209.345 Y131.092 E202.76855
G1 X208.851 Y131.338 E202.7869
G1 X208.5 Y131.4 E202.79876
G1 X88.5 Y131.4 E206.78997
G1 X88.081 Y131.322 E206.80415
G1 X87.617 Y131.077 E206.8216
G1 X87.408 Y130.845 E206.83199
G1 X87.162 Y130.351 E206.85034
G1 X87.1 Y130 E206.8622
G1 X87.1 Y80 E208.5252
G1 X87.178 Y79.581 E208.53938
G1 X87.423 Y79.117 E208.55683
G0 F3600 X87.707 Y79.399
G1 F1800 X87.845 Y79.26 E208.56335
G1 X88.227 Y79.054 E208.57778
G1 X88.5 Y79 E208.58704
G1 X208.5 Y79 E212.57825
G1 X208.838 Y79.07 E212.58973
G1 X209.101 Y79.207 E212.5996
G1 X209.24 Y79.345 E212.60611
G1 X209.446 Y79.727 E212.62055
G1 X209.5 Y80 E212.6298
G1 X209.5 Y130 E214.29281
G1 X209.43 Y130.338 E214.30429
G1 X209.293 Y130.601 E214.31415
G1 X209.155 Y130.74 E214.32067
G1 X208.773 Y130.946 E214.3351
G1 X208.5 Y131 E214.34436
G1 X88.5 Y131 E218.33557
G1 X88.162 Y130.93 E218.34705
G1 X87.899 Y130.793 E218.35692
G1 X87.76 Y130.655 E218.36343
G1 X87.554 Y130.273 E218.37787
G1 X87.5 Y130 E218.38712
G1 X87.5 Y80 E220.05013
G1 X87.57 Y79.662 E220.06161
G1 X87.707 Y79.399 E220.07147
G0 F3600 X88.339 Y79.881
G1 F1800 X88.5 Y79.8 E220.07747
G1 X208.5 Y79.8 E224.06868
G1 X208.619 Y79.839 E224.07285
G1 X208.7 Y80 E224.07884
G1 X208.7 Y130 E225.74185
G1 X208.661 Y130.119 E225.74602
G1 X208.5 Y130.2 E225.75201
G1 X88.5 Y130.2 E229.74323
G1 X88.381 Y130.161 E229.74739
G1 X88.3 Y130 E229.75339
G1 X88.3 Y80 E231.41639
G1 X88.339 Y79.881 E231.42056
G0 F3600 X87.959 Y79.756
G1 F1800 X88.05 Y79.604 E231.42645
G1 X88.32 Y79.443 E231.43691
G1 X88.5 Y79.4 E231.44306
G1 X208.5 Y79.4 E235.43428
