;FLAVOR:Marlin
;TIME:7165
;Filament used: 7.64743m
;Layer height: 0.2
;MINX:80.7
;MINY:72.2
;MINZ:0.2
;MAXX:216.3
;MAXY:137.8
;MAXZ:10
;TARGET_MACHINE.NAME:BQ Witbox 2
;Generated with Cura_SteamEngine 5.11.0
M104 S200
M105
M109 S200
; -- START GCODE --
M800        ; Custom GCODE to fire start print procedure
; -- end of START GCODE --
M82 ;absolute extrusion mode
G92 E0
G92 E0
G1 F1500 E-6.5
;LAYER_COUNT:50
;LAYER:0
M107
G0 F3600 X82.89 Y74.552 Z0.2
;TYPE:SKIRT
G1 F1500 E0
G1 F1800 X84.243 Y73.46 E0.05783
G1 X86.222 Y72.474 E0.13137
G1 X87.746 Y72.252 E0.18259
G1 X209.122 Y72.2 E4.21957
G1 X211.179 Y72.622 E4.28942
G1 X212.95 Y73.617 E4.35698
G1 X213.948 Y74.39 E4.39896
G1 X215.04 Y75.743 E4.45679
G1 X216.026 Y77.722 E4.53033
G1 X216.248 Y79.246 E4.58156
G1 X216.3 Y130.622 E6.29033
G1 X215.878 Y132.679 E6.36017
G1 X214.883 Y134.45 E6.42774
G1 X214.11 Y135.448 E6.46972
G1 X212.757 Y136.54 E6.52755
G1 X210.778 Y137.526 E6.60109
G1 X209.254 Y137.748 E6.65231
G1 X87.783 Y137.8 E10.69246
G1 X85.782 Y137.361 E10.76059
G1 X83.996 Y136.361 E10.82867
G1 X83.053 Y135.622 E10.86852
G1 X81.972 Y134.276 E10.92594
G1 X80.974 Y132.26 E11.00076
G1 X80.752 Y130.754 E11.05139
G1 X80.7 Y79.378 E12.76016
G1 X81.122 Y77.321 E12.83
G1 X82.117 Y75.55 E12.89757
G1 X82.89 Y74.552 E12.93955
G0 F3600 X83.178 Y74.833
G1 F1800 X84.46 Y73.799 E12.99433
G1 X86.342 Y72.861 E13.06427
G1 X87.804 Y72.648 E13.11341
G1 X209.081 Y72.6 E17.1471
G1 X211.038 Y73.002 E17.21355
G1 X212.705 Y73.933 E17.27706
G1 X213.667 Y74.678 E17.31752
G1 X214.701 Y75.96 E17.37231
G1 X215.639 Y77.842 E17.44224
G1 X215.852 Y79.304 E17.49138
G1 X215.9 Y130.581 E19.19686
G1 X215.498 Y132.538 E19.26331
G1 X214.567 Y134.205 E19.32682
G1 X213.822 Y135.167 E19.36729
G1 X212.54 Y136.201 E19.42207
G1 X210.658 Y137.139 E19.49201
G1 X209.196 Y137.352 E19.54115
G1 X87.828 Y137.4 E23.57786
G1 X85.924 Y136.982 E23.6427
G1 X84.243 Y136.046 E23.70669
G1 X83.337 Y135.336 E23.74498
G1 X82.308 Y134.055 E23.79963
G1 X81.361 Y132.142 E23.87062
G1 X81.148 Y130.696 E23.91924
G1 X81.1 Y79.419 E25.62472
G1 X81.502 Y77.462 E25.69117
G1 X82.433 Y75.795 E25.75467
G1 X83.178 Y74.833 E25.79514
G0 F3600 X83.466 Y75.114
G1 F1800 X84.677 Y74.138 E25.84687
G1 X86.462 Y73.248 E25.91321
G1 X87.862 Y73.044 E25.96027
G1 X209.039 Y73 E29.99063
G1 X210.897 Y73.382 E30.05372
G1 X212.46 Y74.249 E30.11317
G1 X213.386 Y74.966 E30.15212
G1 X214.362 Y76.177 E30.20385
G1 X215.252 Y77.962 E30.27019
G1 X215.456 Y79.362 E30.31725
G1 X215.5 Y130.539 E32.0194
G1 X215.118 Y132.397 E32.08249
G1 X214.251 Y133.96 E32.14194
G1 X213.534 Y134.886 E32.18089
G1 X212.323 Y135.862 E32.23262
G1 X210.538 Y136.752 E32.29896
G1 X209.138 Y136.956 E32.34602
G1 X87.873 Y137 E36.37931
G1 X86.067 Y136.603 E36.44081
G1 X84.49 Y135.731 E36.50075
G1 X83.621 Y135.05 E36.53747
G1 X82.644 Y133.834 E36.58935
G1 X81.748 Y132.024 E36.65652
G1 X81.544 Y130.638 E36.70312
G1 X81.5 Y79.461 E38.40527
G1 X81.882 Y77.603 E38.46836
G1 X82.749 Y76.04 E38.52781
G1 X83.466 Y75.114 E38.56676
G0 F3600 X83.751 Y75.398
G1 F1800 X84.897 Y74.475 E38.6157
G1 X86.582 Y73.635 E38.67833
G1 X87.92 Y73.44 E38.7233
G1 X208.997 Y73.4 E42.75034
G1 X210.757 Y73.762 E42.8101
G1 X212.266 Y74.599 E42.86749
G1 X213.102 Y75.251 E42.90275
G1 X214.025 Y76.397 E42.9517
G1 X214.865 Y78.082 E43.01432
G1 X215.06 Y79.42 E43.05929
G1 X215.1 Y130.497 E44.75812
G1 X214.738 Y132.257 E44.81788
G1 X213.901 Y133.766 E44.87527
G1 X213.249 Y134.602 E44.91054
G1 X212.103 Y135.525 E44.95948
G1 X210.418 Y136.365 E45.0221
G1 X209.08 Y136.56 E45.06707
G1 X87.918 Y136.6 E49.09694
G1 X86.209 Y136.224 E49.15514
G1 X84.737 Y135.416 E49.21099
G1 X83.905 Y134.764 E49.24614
G1 X82.983 Y133.617 E49.29509
G1 X82.135 Y131.903 E49.35869
G1 X81.94 Y130.58 E49.40317
G1 X81.9 Y79.503 E51.102
G1 X82.262 Y77.743 E51.16176
G1 X83.099 Y76.234 E51.21916
G1 X83.751 Y75.398 E51.25442
G0 F3600 X84.035 Y75.683
G1 F1800 X85.117 Y74.812 E51.30062
G1 X86.702 Y74.022 E51.35952
G1 X87.978 Y73.836 E51.40241
G1 X208.955 Y73.8 E55.42612
G1 X210.617 Y74.142 E55.48256
G1 X212.072 Y74.949 E55.5379
G1 X212.817 Y75.535 E55.56942
G1 X213.688 Y76.617 E55.61562
G1 X214.478 Y78.202 E55.67452
G1 X214.664 Y79.478 E55.71741
G1 X214.7 Y130.455 E57.41291
G1 X214.358 Y132.117 E57.46935
G1 X213.551 Y133.572 E57.52469
G1 X212.965 Y134.317 E57.55621
G1 X211.883 Y135.188 E57.60241
G1 X210.298 Y135.978 E57.66132
G1 X209.022 Y136.164 E57.7042
G1 X87.963 Y136.2 E61.73064
G1 X86.349 Y135.845 E61.78561
G1 X84.984 Y135.101 E61.83731
G1 X84.186 Y134.476 E61.87103
G1 X83.321 Y133.399 E61.91697
G1 X82.522 Y131.785 E61.97687
G1 X82.336 Y130.522 E62.01933
G1 X82.3 Y79.545 E63.71483
G1 X82.642 Y77.883 E63.77127
G1 X83.449 Y76.428 E63.82661
G1 X84.035 Y75.683 E63.85813
G0 F3600 X84.32 Y75.968
G1 F1800 X85.335 Y75.151 E63.90147
G1 X86.823 Y74.409 E63.95677
G1 X88.036 Y74.232 E63.99755
G1 X208.913 Y74.2 E68.01793
G1 X210.477 Y74.522 E68.07104
G1 X211.878 Y75.299 E68.12433
G1 X212.532 Y75.82 E68.15214
G1 X213.349 Y76.835 E68.19547
G1 X214.091 Y78.323 E68.25078
G1 X214.268 Y79.536 E68.29155
G1 X214.3 Y130.413 E69.98372
G1 X213.978 Y131.977 E70.03683
G1 X213.201 Y133.378 E70.09012
G1 X212.68 Y134.032 E70.11793
G1 X211.665 Y134.849 E70.16127
G1 X210.177 Y135.591 E70.21657
G1 X208.964 Y135.768 E70.25734
G1 X88.008 Y135.8 E74.28035
G1 X86.489 Y135.466 E74.33208
G1 X85.231 Y134.786 E74.37965
G1 X84.47 Y134.19 E74.41179
G1 X83.657 Y133.178 E74.45497
G1 X82.909 Y131.667 E74.51105
G1 X82.732 Y130.464 E74.55149
G1 X82.7 Y79.587 E76.24367
G1 X83.022 Y78.023 E76.29678
G1 X83.799 Y76.622 E76.35006
G1 X84.32 Y75.968 E76.37787
G0 F3600 X84.604 Y76.254
G1 F1800 X85.555 Y75.488 E76.41849
G1 X86.943 Y74.796 E76.47007
G1 X88.094 Y74.628 E76.50876
G1 X208.871 Y74.6 E80.52582
G1 X210.338 Y74.902 E80.57563
G1 X211.629 Y75.612 E80.62464
G1 X212.246 Y76.104 E80.65088
G1 X213.012 Y77.055 E80.6915
G1 X213.704 Y78.443 E80.74308
G1 X213.872 Y79.594 E80.78177
G1 X213.9 Y130.371 E82.47062
G1 X213.598 Y131.838 E82.52044
G1 X212.888 Y133.129 E82.56944
G1 X212.396 Y133.746 E82.59569
G1 X211.445 Y134.512 E82.6363
G1 X210.057 Y135.204 E82.68789
G1 X208.906 Y135.372 E82.72658
G1 X88.053 Y135.4 E86.74616
G1 X86.63 Y135.087 E86.79462
G1 X85.478 Y134.471 E86.83807
G1 X84.754 Y133.904 E86.86866
G1 X83.993 Y132.957 E86.90907
G1 X83.296 Y131.549 E86.96132
G1 X83.128 Y130.406 E86.99975
G1 X83.1 Y79.629 E88.6886
G1 X83.402 Y78.162 E88.73841
G1 X84.112 Y76.871 E88.78742
G1 X84.604 Y76.254 E88.81366
G0 F3600 X84.89 Y76.537
G1 F1800 X85.771 Y75.827 E88.8513
G1 X87.063 Y75.183 E88.89931
G1 X88.152 Y75.024 E88.93591
G1 X208.829 Y75 E92.94965
G1 X210.2 Y75.282 E92.9962
G1 X211.38 Y75.925 E93.0409
G1 X211.963 Y76.39 E93.0657
G1 X212.673 Y77.271 E93.10333
G1 X213.317 Y78.563 E93.15135
G1 X213.476 Y79.652 E93.18795
G1 X213.5 Y130.329 E94.87348
G1 X213.218 Y131.7 E94.92003
G1 X212.575 Y132.88 E94.96473
G1 X212.11 Y133.463 E94.98953
G1 X211.229 Y134.173 E95.02716
G1 X209.937 Y134.817 E95.07518
G1 X208.848 Y134.976 E95.11178
G1 X88.098 Y135 E99.12794
G1 X86.77 Y134.708 E99.17317
G1 X85.667 Y134.118 E99.21477
G1 X85.039 Y133.619 E99.24145
G1 X84.329 Y132.736 E99.27914
G1 X83.683 Y131.431 E99.32757
G1 X83.524 Y130.348 E99.36398
G1 X83.5 Y79.671 E101.0495
G1 X83.782 Y78.3 E101.09605
G1 X84.425 Y77.12 E101.14075
G1 X84.89 Y76.537 E101.16555
G0 F3600 X85.174 Y76.822
G1 F1800 X85.991 Y76.164 E101.20044
G1 X87.183 Y75.57 E101.24474
G1 X88.21 Y75.42 E101.27926
G1 X208.787 Y75.4 E105.28967
G1 X210.062 Y75.662 E105.33296
G1 X211.131 Y76.238 E105.37335
G1 X211.678 Y76.674 E105.39661
G1 X212.336 Y77.491 E105.4315
G1 X212.93 Y78.683 E105.4758
G1 X213.08 Y79.71 E105.51032
G1 X213.1 Y130.287 E107.19252
G1 X212.838 Y131.562 E107.23581
G1 X212.262 Y132.631 E107.2762
G1 X211.826 Y133.178 E107.29946
G1 X211.009 Y133.836 E107.33436
G1 X209.817 Y134.43 E107.37865
G1 X208.79 Y134.58 E107.41317
G1 X88.143 Y134.6 E111.42591
G1 X86.91 Y134.329 E111.4679
G1 X85.856 Y133.765 E111.50766
G1 X85.325 Y133.336 E111.53036
G1 X84.665 Y132.515 E111.5654
G1 X84.07 Y131.313 E111.61001
G1 X83.92 Y130.29 E111.64439
G1 X83.9 Y79.713 E113.32659
G1 X84.162 Y78.438 E113.36988
G1 X84.738 Y77.369 E113.41027
G1 X85.174 Y76.822 E113.43354
G0 F3600 X85.456 Y77.109
G1 F1800 X86.211 Y76.501 E113.46578
G1 X87.303 Y75.957 E113.50636
G1 X88.268 Y75.816 E113.53879
G1 X208.746 Y75.8 E117.54591
G1 X209.924 Y76.042 E117.58591
G1 X210.941 Y76.59 E117.62433
G1 X211.391 Y76.956 E117.64362
G1 X211.999 Y77.711 E117.67586
G1 X212.543 Y78.803 E117.71644
G1 X212.684 Y79.768 E117.74888
G1 X212.7 Y130.246 E119.42778
G1 X212.458 Y131.424 E119.46778
G1 X211.91 Y132.441 E119.50621
G1 X211.544 Y132.891 E119.5255
G1 X210.789 Y133.499 E119.55774
G1 X209.697 Y134.043 E119.59832
G1 X208.732 Y134.184 E119.63075
G1 X88.188 Y134.2 E123.64006
G1 X87.05 Y133.95 E123.67882
G1 X86.078 Y133.43 E123.71548
G1 X85.611 Y133.052 E123.73546
G1 X85.001 Y132.294 E123.76783
G1 X84.457 Y131.195 E123.80861
G1 X84.316 Y130.232 E123.84098
G1 X84.3 Y79.754 E125.51989
G1 X84.542 Y78.576 E125.55989
G1 X85.09 Y77.559 E125.59831
G1 X85.456 Y77.109 E125.6176
G0 F3600 X85.707 Y77.421
G1 F1800 X86.431 Y76.838 E125.64852
G1 X87.423 Y76.344 E125.68538
G1 X88.326 Y76.212 E125.71573
G1 X208.705 Y76.2 E129.71955
G1 X209.786 Y76.422 E129.75626
G1 X210.694 Y76.905 E129.79046
G1 X211.079 Y77.207 E129.80674
G1 X211.662 Y77.931 E129.83766
G1 X212.156 Y78.923 E129.87452
G1 X212.288 Y79.826 E129.90487
G1 X212.3 Y130.205 E131.58048
G1 X212.078 Y131.286 E131.61719
G1 X211.595 Y132.194 E131.65139
G1 X211.293 Y132.579 E131.66767
G1 X210.569 Y133.162 E131.69858
G1 X209.577 Y133.656 E131.73544
G1 X208.674 Y133.788 E131.7658
G1 X88.233 Y133.8 E135.77168
G1 X87.19 Y133.571 E135.8072
G1 X86.267 Y133.077 E135.84202
G1 X85.898 Y132.77 E135.85798
G1 X85.339 Y132.075 E135.88765
G1 X84.844 Y131.076 E135.92473
G1 X84.712 Y130.174 E135.95505
G1 X84.7 Y79.795 E137.63066
G1 X84.922 Y78.714 E137.66737
G1 X85.405 Y77.806 E137.70157
G1 X85.707 Y77.421 E137.71785
G0 F3600 X85.958 Y77.733
G1 F1800 X86.651 Y77.175 E137.74744
G1 X87.543 Y76.731 E137.78058
G1 X88.384 Y76.608 E137.80885
G1 X208.664 Y76.6 E141.80938
G1 X209.65 Y76.802 E141.84285
G1 X210.455 Y77.226 E141.87312
G1 X210.767 Y77.458 E141.88605
G1 X211.325 Y78.151 E141.91564
G1 X211.769 Y79.043 E141.94878
G1 X211.892 Y79.884 E141.97705
G1 X211.9 Y130.164 E143.64937
G1 X211.698 Y131.15 E143.68284
G1 X211.274 Y131.955 E143.71311
G1 X211.042 Y132.267 E143.72604
G1 X210.349 Y132.825 E143.75563
G1 X209.457 Y133.269 E143.78877
G1 X208.616 Y133.392 E143.81704
G1 X88.278 Y133.4 E147.8195
G1 X87.33 Y133.192 E147.85178
G1 X86.456 Y132.724 E147.88475
G1 X86.21 Y132.519 E147.8954
G1 X85.677 Y131.856 E147.9237
G1 X85.231 Y130.957 E147.95707
G1 X85.108 Y130.116 E147.98534
G1 X85.1 Y79.836 E149.65766
G1 X85.302 Y78.85 E149.69114
G1 X85.726 Y78.045 E149.7214
G1 X85.958 Y77.733 E149.73433
G0 F3600 X86.249 Y78.012
G1 F1800 X86.867 Y77.514 E149.76073
G1 X87.663 Y77.118 E149.7903
G1 X88.442 Y77.004 E149.81649
G1 X208.623 Y77 E153.81372
G1 X209.513 Y77.182 E153.84394
G1 X210.268 Y77.58 E153.87232
G1 X210.488 Y77.749 E153.88155
G1 X210.986 Y78.367 E153.90795
G1 X211.382 Y79.163 E153.93752
G1 X211.496 Y79.942 E153.9637
G1 X211.5 Y130.123 E155.63273
G1 X211.318 Y131.013 E155.66295
G1 X210.92 Y131.768 E155.69133
G1 X210.751 Y131.988 E155.70056
G1 X210.133 Y132.486 E155.72696
G1 X209.337 Y132.882 E155.75653
G1 X208.558 Y132.996 E155.78271
G1 X88.323 Y133 E159.78175
G1 X87.47 Y132.813 E159.81079
G1 X86.645 Y132.371 E159.84192
G1 X86.522 Y132.268 E159.84726
G1 X86.015 Y131.637 E159.87418
G1 X85.618 Y130.837 E159.90388
G1 X85.504 Y130.058 E159.93007
G1 X85.5 Y79.877 E161.59909
G1 X85.682 Y78.987 E161.62931
G1 X86.08 Y78.232 E161.6577
G1 X86.249 Y78.012 E161.66692
G0 F3600 X86.537 Y78.293
G1 F1800 X87.083 Y77.853 E161.69025
G1 X87.783 Y77.505 E161.71625
G1 X88.5 Y77.4 E161.74035
G1 X208.582 Y77.4 E165.73429
G1 X209.378 Y77.563 E165.76132
G1 X210.082 Y77.934 E165.78778
G1 X210.207 Y78.037 E165.79317
G1 X210.647 Y78.583 E165.81649
G1 X210.995 Y79.283 E165.84249
G1 X211.1 Y80 E165.8666
G1 X211.1 Y130.082 E167.53233
G1 X210.937 Y130.878 E167.55935
G1 X210.566 Y131.582 E167.58582
G1 X210.463 Y131.707 E167.59121
G1 X209.917 Y132.147 E167.61453
G1 X209.217 Y132.495 E167.64053
G1 X208.5 Y132.6 E167.66463
G1 X88.368 Y132.6 E171.66024
G1 X87.61 Y132.434 E171.68605
G1 X86.834 Y132.018 E171.71533
G1 X86.354 Y131.42 E171.74084
G1 X86.005 Y130.717 E171.76694
G1 X85.9 Y130 E171.79104
G1 X85.9 Y79.918 E173.45678
G1 X86.063 Y79.122 E173.4838
G1 X86.434 Y78.418 E173.51027
G1 X86.537 Y78.293 E173.51566
G0 F3600 X86.788 Y78.604
G1 F1800 X87.299 Y78.192 E173.53749
G1 X87.905 Y77.891 E173.56
G1 X88.5 Y77.8 E173.58002
G1 X208.541 Y77.8 E177.57259
G1 X209.243 Y77.944 E177.59643
G1 X209.896 Y78.288 E177.62098
G1 X210.308 Y78.799 E177.64281
G1 X210.609 Y79.405 E177.66532
G1 X210.7 Y80 E177.68533
G1 X210.7 Y130.041 E179.34971
G1 X210.556 Y130.743 E179.37354
G1 X210.212 Y131.396 E179.39809
G1 X209.701 Y131.808 E179.41992
G1 X209.095 Y132.109 E179.44243
G1 X208.5 Y132.2 E179.46245
G1 X88.413 Y132.2 E183.45656
G1 X87.747 Y132.054 E183.47923
G1 X87.097 Y131.705 E183.50377
G1 X86.692 Y131.201 E183.52528
G1 X86.391 Y130.595 E183.54778
G1 X86.3 Y130 E183.5678
G1 X86.3 Y79.959 E185.23217
G1 X86.444 Y79.257 E185.25601
G1 X86.788 Y78.604 E185.28055
G0 F3600 X87.105 Y78.862
G1 F1800 X87.477 Y78.55 E185.2967
G1 X88.026 Y78.277 E185.31709
G1 X88.5 Y78.2 E185.33307
G1 X208.5 Y78.2 E189.32428
G1 X209.106 Y78.324 E189.34486
G1 X209.638 Y78.605 E189.36487
G1 X209.95 Y78.977 E189.38102
G1 X210.223 Y79.526 E189.40141
G1 X210.3 Y80 E189.41738
G1 X210.3 Y130 E191.08039
G1 X210.176 Y130.606 E191.10096
G1 X209.895 Y131.138 E191.12097
G1 X209.523 Y131.45 E191.13712
G1 X208.974 Y131.723 E191.15751
G1 X208.5 Y131.8 E191.17348
G1 X88.458 Y131.8 E195.1661
G1 X87.884 Y131.674 E195.18564
G1 X87.359 Y131.392 E195.20547
G1 X87.05 Y131.023 E195.22147
G1 X86.777 Y130.474 E195.24187
G1 X86.7 Y130 E195.25784
G1 X86.7 Y80 E196.92084
G1 X86.824 Y79.394 E196.94142
G1 X87.105 Y78.862 E196.96143
G0 F3600 X87.423 Y79.117
G1 F1800 X87.655 Y78.908 E196.97181
G1 X88.149 Y78.662 E196.99017
G1 X88.5 Y78.6 E197.00202
G1 X208.5 Y78.6 E200.99324
G1 X208.919 Y78.678 E201.00742
G1 X209.383 Y78.923 E201.02487
G1 X209.592 Y79.155 E201.03525
G1 X209.838 Y79.649 E201.05361
G1 X209.9 Y80 E201.06546
G1 X209.9 Y130 E202.72847
G1 X209.822 Y130.419 E202.74265
G1 X209.577 Y130.883 E202.7601
G1 X209.345 Y131.092 E202.77048
G1 X208.851 Y131.338 E202.78884
G1 X208.5 Y131.4 E202.80069
G1 X88.458 Y131.4 E206.79331
G1 X87.977 Y131.285 E206.80976
G1 X87.617 Y131.077 E206.82358
G1 X87.408 Y130.845 E206.83397
G1 X87.162 Y130.351 E206.85233
G1 X87.1 Y130 E206.86418
G1 X87.1 Y80 E208.52719
G1 X87.178 Y79.581 E208.54136
G1 X87.423 Y79.117 E208.55881
G0 F3600 X87.707 Y79.399
G1 F1800 X87.57 Y79.662 E208.56868
G1 X87.5 Y80 E208.58016
G1 X87.5 Y130 E210.24316
G1 X87.554 Y130.273 E210.25242
G1 X87.76 Y130.655 E210.26686
G1 X87.899 Y130.793 E210.27337
G1 X88.162 Y130.93 E210.28323
G1 X88.5 Y131 E210.29471
G1 X208.5 Y131 E214.28593
G1 X208.773 Y130.946 E214.29519
G1 X209.155 Y130.74 E214.30962
G1 X209.293 Y130.601 E214.31614
G1 X209.43 Y130.338 E214.326
G1 X209.5 Y130 E214.33748
G1 X209.5 Y80 E216.00049
G1 X209.446 Y79.727 E216.00974
G1 X209.24 Y79.345 E216.02418
G1 X209.101 Y79.207 E216.03069
G1 X208.838 Y79.07 E216.04055
G1 X208.5 Y79 E216.05204
G1 X88.5 Y79 E220.04325
G1 X88.227 Y79.054 E220.05251
G1 X87.845 Y79.26 E220.06694
G1 X87.707 Y79.399 E220.07346
G0 F3600 X88.339 Y79.881
G1 F1800 X88.5 Y79.8 E220.07945
G1 X208.5 Y79.8 E224.07067
G1 X208.619 Y79.839 E224.07483
G1 X208.7 Y80 E224.08083
G1 X208.7 Y130 E225.74383
G1 X208.661 Y130.119 E225.748
G1 X208.5 Y130.2 E225.75399
G1 X88.5 Y130.2 E229.74521
G1 X88.381 Y130.161 E229.74937
G1 X88.3 Y130 E229.75537
G1 X88.3 Y80 E231.41838
G1 X88.339 Y79.881 E231.42254
G0 F3600 X87.959 Y79.756
G1 F1800 X88.05 Y79.604 E231.42843
G1 X88.32 Y79.443 E231.43889
G1 X88.5 Y79.4 E231.44504
G1 X208.5 Y79.4 E235.43626
G1 X208.744 Y79.459 E235.44461
G1 X208.896 Y79.55 E235.4505
